modules/feathericon/icons/tag.svg

<?xml version="1.0" encoding="UTF-8"?>
<svg width="24px" height="24px" viewBox="0 0 24 24" version="1.1" xmlns="http://www.w3.org/2000/svg" xmlns:xlink="http://www.w3.org/1999/xlink">
    <!-- Generator: sketchtool 52.2 (67145) - http://www.bohemiancoding.com/sketch -->
    <title>tag</title>
    <desc>Created with sketchtool.</desc>
    <g id="web-app" stroke="none" stroke-width="1" fill="none" fill-rule="evenodd">
        <g id="tag" fill="#000000" fill-rule="nonzero">
            <path d="M4.98111634,14.8866981 L9.11330194,19.0188837 L19.0188837,9.11330194 L19.0188837,4.98111634 L14.8866981,4.98111634 L4.98111634,14.8866981 Z M13.4858373,3.58025554 C13.8573686,3.20872416 14.3612733,3 14.8866981,3 L19.0188837,3 C20.113024,3 21,3.886976 21,4.98111634 L21,9.11330194 C21,9.63872666 20.7912758,10.1426314 20.4197445,10.5141627 L10.5141627,20.4197445 C9.74048869,21.1934185 8.4861152,21.1934185 7.71244114,20.4197445 L3.58025554,16.2875589 C2.80658149,15.5138848 2.80658149,14.2595113 3.58025554,13.4858373 L13.4858373,3.58025554 Z M16,9 C16.5522847,9 17,8.55228475 17,8 C17,7.44771525 16.5522847,7 16,7 C15.4477153,7 15,7.44771525 15,8 C15,8.55228475 15.4477153,9 16,9 Z" id="Shape"></path>
        </g>
    </g>
</svg>

<svg width="24" height="24" viewBox="0 0 24 24" xmlns="http://www.w3.org/2000/svg"><path d="M4.981 14.887l4.132 4.132 9.906-9.906V4.981h-4.132L4.98 14.887zM13.486 3.58c.371-.371.875-.58 1.4-.58h4.133C20.113 3 21 3.887 21 4.981v4.132c0 .526-.209 1.03-.58 1.401l-9.906 9.906a1.981 1.981 0 0 1-2.802 0L3.58 16.288a1.981 1.981 0 0 1 0-2.802l9.906-9.906zM16 9a1 1 0 1 0 0-2 1 1 0 0 0 0 2z" fill="#000" fill-rule="nonzero"/></svg>
